X: 14
T: Spootiskerry (Ian Burns \2511980; R-78)
I: Spootiskerry	R-78	G	reel
M: C|
R: reel
K: G
DE| "G"G2DE GDEG| DEGA "D"B2AB| "G"G2DE "Em"GABd| "C"eged "D"B2AB|
    "G"G2DE GDEG| DEGA "G7"B2AB| "C"g2ed "Am"edBA| "D7"dBAB "G"G2:|
ef| "Em"g2ed edB2| BABG "C"E2DE| "G"GABd "Em"eged| "A7"B2A2 "D7"A2ef|
    "Em"g2ed edB2| BABG "C"E2DE| "G"GABd "C"eged| "D"B2G2 "G"G2ef|
    "Em"g2ed edB2| BABG "C"E2DE| "G"GABd "Em"eged| "A7"B2A2 "D7"A2DE|
    "G"G2DE GDEG| DEGA "G7"B2AB| "C"g2ed "Am"edBA| "D7"dBAB "G"G2 |]
%%scale .5
%%text 05/27/09 

#include "LeftHeader.h"
%%footer 11/23/98 For use only by Roaring Jelly members
% ---------- set 18 ----------
% Bouchard's (D) / Auld Gray Cat (Em) / St. Annes (D)
%%text Set 18
%%vskip -1cm
